!!!OTL: 501. Wenn sich zwei Herzen scheiden.
!!!COM: F. Mendelssohn
!!!ARE: Europa, Mitteleuropa, Deutschland
!!!SCT: B0501
!!!TXL: @@DE
!!!YEM: Copyright 1995, estate of Helmut Schaffrath.
**kern	**text
*ICvox	*
*Ivox	*
*clefG2	*
*M2/4	*
*k[f#]	*
*e:	*
=1	=1
!LO:TX:a:t=Getragen.	!
{8b	Wenn
16g	ſich
16a	ʒwei
8b	Her-
8a	-ʒen
=2	=2
4cc	ſchei-
8b}	-den,
{8ee	die
=3	=3
8dd	ſich
8cc	der-
8b	-einſt
8cc	ge-
=4	=4
4.f#	-liebt,
16r}	.
{16b	das
=5	=5
8b	iſt
16gL	ein
16aJ	.
8b	ar-
16ddL	-ges
16ccJ	.
=6	=6
4b	Lei-
8a}	-den,
{8dd	wie's
=7	=7
8.dd	grö-
16cc	-ßer
8cc	kei-
8ee	-nes
=8	=8
4.a}	giebt.
{8a	Es
=9	=9
8a	klingt
8b	das
8cc	Wort
8dd	ſo
=10	=10
8.cc	trau-
16b	-rig
8b}	gar:
{8b	fahr'
=11	=11
8cc#	wohl,
8dd	fahr'
8ee	wohl
8ff#	auf
=12	=12
8.ee	im-
16dd#	-mer
4dd#}	dar:
=13	=13
{8b	wenn
16g	ſich
16a	ʒwei
8b	Her-
8a	-ʒen
=14	=14
4cc	ſcheiden,
8b}	.
{8ee	die
=15	=15
8b	ſich
8g	der-
8.f#	-einſt
16g	geliebt.
=16	=16
4e	.
4r}	.
==	==
!!!Ag: Abschieds - Lied
!!!GTL: Abschiedslieder
!!!ONB: ESAC (Essen Associative Code) Database: BOEHME
!!!AMT: simple duple
!!!AIN: vox
!!!EED: Helmut Schaffrath
!!!EEV: 1.0
!!F. Mendelsſohn. (Aus op. 99. )
!!@@COMMENT:"Gedicht von Em. Geibel, 1840 in ſeinen Gedichten. Eine Strophe vor der. 3. hat
!!Mendelsſohn ʒu ſeiner Kompofition op. 99) weggelaſſen."
!!@@END:
!!!Text: E. Geibel
!!!URL-scan: https://archive.org/details/BoehmeVtLieder1895/page/n401/mode/2up
!!!ENC: Anna Maria Matuszewska
!!!EEV: 2024/11/07
*-	*-
